X:1
T: The Pattern Day
C:
R:Jig
Q:180
S:Bruce Shawyer
K:A
M:6/8
L:1/16
|: E2 |\
A2B2A2 A2F2E2 | F2A2A2 A2c2e2 | f2e2d2 c4  c2 | c2B2A2 F4G2 |\
A2B2A2 A2F2E2 | F2A2A2 A2c2e2 | f2g2a2 e2c2A2 | B2A2A2 A4  :|
|: A2 |\
A2c2e2 e2c2A2 | A2c2e2 e4  e2 | f2e2d2 c4  c2 | c2B2A2 F4G2 |\
A2B2A2 A2F2E2 | F2A2A2 A2c2e2 | f2g2a2 e2c2A2 | B2A2A2 A4  :|
